src/assets/images/notfound_bg_part3.svg

<svg fill="none" height="1175" viewBox="0 0 1038 1175" width="1038" xmlns="http://www.w3.org/2000/svg"><path clip-rule="evenodd" d="m189.749 456.947c37.997-120.312 162.318-156.879 256.513-212.347 90.114-53.066 188.74-133.04 266.815-95.821 76.896 36.658 74.248 168.632 97.438 269.465 23.15 100.659 80.097 197.235 35.289 307.658-44.979 110.846-153.34 147.005-241.853 201.391-87.333 53.662-185.946 148.737-259.096 106.417-72.146-41.739-30.656-192.797-56.531-289.013-28.006-104.14-136.364-168.092-98.575-287.75z" fill="#fff" fill-opacity=".16" fill-rule="evenodd"/></svg>

<svg width="1038" height="1175" viewBox="0 0 1038 1175" fill="none" xmlns="http://www.w3.org/2000/svg">
<path fill-rule="evenodd" clip-rule="evenodd" d="M189.749 456.947C227.746 336.635 352.067 300.068 446.262 244.6C536.376 191.534 635.002 111.56 713.077 148.779C789.973 185.437 787.325 317.411 810.515 418.244C833.665 518.903 890.612 615.479 845.804 725.902C800.825 836.748 692.464 872.907 603.951 927.293C516.618 980.955 418.005 1076.03 344.855 1033.71C272.709 991.971 314.199 840.913 288.324 744.697C260.318 640.557 151.96 576.605 189.749 456.947Z" fill="white" fill-opacity="0.16"/>
</svg>
